svg/color/dash.svg

<?xml version="1.0" encoding="UTF-8"?>
<svg width="32px" height="32px" viewBox="0 0 32 32" version="1.1" xmlns="http://www.w3.org/2000/svg" xmlns:xlink="http://www.w3.org/1999/xlink">
    <!-- Generator: Sketch 50 (54983) - http://www.bohemiancoding.com/sketch -->
    <title>color/dash</title>
    <desc>Created with Sketch.</desc>
    <defs></defs>
    <g id="color/dash" stroke="none" stroke-width="1" fill="none" fill-rule="evenodd">
        <g id="Group" fill="#008CE7" fill-rule="nonzero">
            <circle id="Oval" cx="16" cy="16" r="16"></circle>
        </g>
        <g id="Dash-(DASH)" transform="translate(6.000000, 8.000000)" fill="#FFFFFF" fill-rule="nonzero">
            <path d="M13.0857143,0.0043956044 L5.81098901,0.0043956044 L5.20879121,3.37142857 L11.7714286,3.38021978 C15.0021978,3.38021978 15.9604396,4.55384615 15.9296703,6.5010989 C15.9164835,7.4989011 15.4813187,9.18681319 15.2967033,9.73186813 C14.8,11.1912088 13.7758242,12.8527473 9.93846154,12.8483516 L3.56043956,12.843956 L2.95824176,16.2153846 L10.2153846,16.2153846 C12.7736264,16.2153846 13.8637363,15.9164835 15.0153846,15.3846154 C17.5692308,14.2065934 19.0901099,11.6835165 19.7010989,8.39120879 C20.6065934,3.49010989 19.4769231,0.0043956044 13.0857143,0.0043956044 Z" id="Shape"></path>
            <path d="M9.80659341,7.7978022 C10.043956,6.81318681 10.1186813,6.41758242 10.1186813,6.41758242 L2.67252747,6.41758242 C0.769230769,6.41758242 0.496703297,7.65714286 0.316483516,8.40879121 C0.0791208791,9.38901099 0.0043956044,9.78901099 0.0043956044,9.78901099 L7.45054945,9.78901099 C9.35384615,9.78901099 9.62637363,8.54945055 9.80659341,7.7978022 Z" id="Shape"></path>
        </g>
    </g>
</svg>

<svg height="32" viewBox="0 0 32 32" width="32" xmlns="http://www.w3.org/2000/svg"><g fill="none"><circle cx="16" cy="16" fill="#008ce7" r="16"/><g fill="#fff" transform="translate(6 8)"><path d="m13.0857143.0043956h-7.27472529l-.6021978 3.36703297 6.56263739.00879121c3.2307692 0 4.189011 1.17362637 4.1582417 3.12087912-.0131868.9978022-.4483516 2.68571429-.632967 3.23076923-.4967033 1.45934067-1.5208791 3.12087917-5.35824176 3.11648347l-6.37802198-.0043956-.6021978 3.3714286h7.25714284c2.5582418 0 3.6483517-.2989011 4.8-.8307692 2.5538462-1.178022 4.0747253-3.7010989 4.6857143-6.99340661.9054945-4.9010989-.2241758-8.38681319-6.6153846-8.38681319z"/><path d="m9.80659341 7.7978022c.23736259-.98461539.31208789-1.38021978.31208789-1.38021978h-7.44615383c-1.9032967 0-2.17582417 1.23956044-2.35604395 1.99120879-.23736264.98021978-.31208792 1.38021978-.31208792 1.38021978h7.44615385c1.9032967 0 2.17582418-1.23956044 2.35604396-1.99120879z"/></g></g></svg>
